X:161
T: Die Rabenmutter
N: Q1114b
O: Mitteleuropa, Oesterreich, Tirol
N: Melodievergleich zu Q0114Y und Z, anderes Lied.
R: ???
M: 3/4
L: 1/8
K: G
DD | G2D2DD | E2E2
GG | F2C2EE | D2z2
B,D | B2B2cB | A2E2
AG | F2F2EF | G2z2

@@@ Tune index: 1454
